X:8
T:Punch in The Dark
C:Gerry O'Connor (banjo)
R:reel
D:Wild geese : in full flight
D:Sean Smyth: The Blue Fiddle
D:Four Men and a Dog: Dr A's Secret Remedies
D:The Back Door by Cherish The Ladies
D:The Kinnitty Sessions by Lunasa
M:C|
K:Bdor
~B3d cBdc|BdcB ~F3A|~B3d cBdc|Aaag afec|
~B3d cBdc|BdcB ~F3D|1 ~E3F ABcA|cAce afec:|2 EAAG ABcA|Bcde fefg||
K:A
|:~a3g aece|~a3f gabg|~a3g aece|dcBc defg|
~a3g aece|~a3f gaba|c'abg agfe|1 dcBc defg:|2 dcBd cBdc||
~B3d cBdc|BdcB FEFB|dcBd cBAd|caag afec|
~B3d cBdc|BdcB ~F3A|1 ~E3F ABcA|caag afec:|2 caag aece||
K:A
|:~a3g aece|acea gabg|~ a2ag aece|dcBc defg|
~a3g aece|acea gaba|a2ag aece|1 dcBc defg:|2 dcBd cBdc||
|:B3d cBdc|BdcA F3A|BdcB dcBd|caag afec|
dcBd cBdc|BdcA F3E|C3F EFAB|1 cdec decd:|2 cdec defg||
|:a2ag aece|~a3e gabg|a2ag aece|dB~B2 defg|
a2ag aece|~a3e gabg|a2ge (3fga ec|1 dcBc defg:|2 decd Bdcd||
